X: 1
T: I Buried My Wife And Danced On Top Of Her
M: 6/8
L: 1/8
R: jig
K: Dmin
|:DDD F2G | AdB cAF | GGG BAG | FFF GEA |
DDD F2G | AdB cAF | GGG BAG | AFD D2A :|
|:d2e fed | faf gfe | d2e fed | dcA dcA |
d2e fed | faf gfe | dcA BAG | AFD D3 :|
